src/img/section-services/apartments.svg

<svg xmlns="http://www.w3.org/2000/svg" width="512" height="512"><path d="M96 248h48a8 8 0 008-8v-40a32 32 0 00-64 0v40a8 8 0 008 8zm8-16v-16h32v16zm16-48a16.019 16.019 0 0116 16h-32a16.019 16.019 0 0116-16zm168 64h48a8 8 0 008-8v-40a32 32 0 00-64 0v40a8 8 0 008 8zm8-16v-16h32v16zm16-48a16.019 16.019 0 0116 16h-32a16.019 16.019 0 0116-16z"/><path d="M494.4 107.2l-24-32A8 8 0 00464 72H352V24a8 8 0 00-8-8H168a8 8 0 00-8 8v48H48a8 8 0 00-6.4 3.2l-24 32A8 8 0 0016 112v32a8 8 0 008 8h24v160a8 8 0 00-8 8v32a8 8 0 008 8v88h-8a8 8 0 00-8 8v32a8 8 0 008 8h432a8 8 0 008-8v-32a8 8 0 00-8-8h-8v-88a8 8 0 008-8v-32a8 8 0 00-8-8V152h24a8 8 0 008-8v-32a8 8 0 00-1.6-4.8zM460 88l12 16H352V88zM176 32h160v72H176zM52 88h108v16H40zm12 64h184v112h-16v-64a32 32 0 00-64 0v64H80v16h8v32H64zm392 192H56v-16h400zm-176 40v64h-48v-64a24 24 0 0148 0zM120 280v32h-16v-32zm112 32v-32h16v32zm-64 0v-32h16v32zm32-32h16v32h-16zm16-16h-32v-64a16 16 0 0132 0zm-64 48h-16v-32h16zm208 0v-32h16v32zm32 0v-32h16v32zm16-48h-32v-64a16 16 0 0132 0zm-64 48h-16v-32h16zm-32 0h-16v-32h16zm-32 0h-16v-32h16zM64 360h160.022A39.788 39.788 0 00216 384v64h-16v-64a8 8 0 00-8-8H88a8 8 0 00-8 8v64H64zm32 88v-56h34.4l-31.107 56zm52.707-56h21.7l-31.111 56H117.6zM184 400.472V448h-26.4zM48 464h160v16H48zm176 0h64v16h-64zm240 16H304v-16h160zm-48-32h-26.4l26.4-47.528zm-44.707 0H349.6l31.111-56h21.7zm-40 0H328v-56h34.4zM448 448h-16v-64a8 8 0 00-8-8H320a8 8 0 00-8 8v64h-16v-64a39.788 39.788 0 00-8.022-24H448zm0-136h-24v-32h8v-16h-8v-64a32 32 0 00-64 0v64h-96V152h184zM32 136v-16h448v16z"/></svg>

<?xml version="1.0"?>
<svg xmlns="http://www.w3.org/2000/svg" viewBox="0 0 512 512" width="512" height="512"><g id="outline"><path d="M96,248h48a8,8,0,0,0,8-8V200a32,32,0,0,0-64,0v40A8,8,0,0,0,96,248Zm8-16V216h32v16Zm16-48a16.019,16.019,0,0,1,16,16H104A16.019,16.019,0,0,1,120,184Z"/><path d="M288,248h48a8,8,0,0,0,8-8V200a32,32,0,0,0-64,0v40A8,8,0,0,0,288,248Zm8-16V216h32v16Zm16-48a16.019,16.019,0,0,1,16,16H296A16.019,16.019,0,0,1,312,184Z"/><path d="M494.4,107.2l-24-32A8,8,0,0,0,464,72H352V24a8,8,0,0,0-8-8H168a8,8,0,0,0-8,8V72H48a8,8,0,0,0-6.4,3.2l-24,32A8,8,0,0,0,16,112v32a8,8,0,0,0,8,8H48V312a8,8,0,0,0-8,8v32a8,8,0,0,0,8,8v88H40a8,8,0,0,0-8,8v32a8,8,0,0,0,8,8H472a8,8,0,0,0,8-8V456a8,8,0,0,0-8-8h-8V360a8,8,0,0,0,8-8V320a8,8,0,0,0-8-8V152h24a8,8,0,0,0,8-8V112A8,8,0,0,0,494.4,107.2ZM460,88l12,16H352V88ZM176,32H336v72H176ZM52,88H160v16H40Zm12,64H248V264H232V200a32,32,0,0,0-64,0v64H80v16h8v32H64ZM456,344H56V328H456ZM280,384v64H232V384a24,24,0,0,1,48,0ZM120,280v32H104V280Zm112,32V280h16v32Zm-64,0V280h16v32Zm32-32h16v32H200Zm16-16H184V200a16,16,0,0,1,32,0Zm-64,48H136V280h16Zm208,0V280h16v32Zm32,0V280h16v32Zm16-48H376V200a16,16,0,0,1,32,0Zm-64,48H328V280h16Zm-32,0H296V280h16Zm-32,0H264V280h16ZM64,360H224.022A39.788,39.788,0,0,0,216,384v64H200V384a8,8,0,0,0-8-8H88a8,8,0,0,0-8,8v64H64Zm32,88V392h34.4L99.293,448Zm52.707-56h21.7l-31.111,56H117.6ZM184,400.472V448H157.6ZM48,464H208v16H48Zm176,0h64v16H224Zm240,16H304V464H464Zm-48-32H389.6L416,400.472Zm-44.707,0H349.6l31.111-56h21.7Zm-40,0H328V392h34.4ZM448,448H432V384a8,8,0,0,0-8-8H320a8,8,0,0,0-8,8v64H296V384a39.788,39.788,0,0,0-8.022-24H448Zm0-136H424V280h8V264h-8V200a32,32,0,0,0-64,0v64H264V152H448ZM32,136V120H480v16Z"/></g></svg>
